icon-themes/breeze_svg/cmd/sc_diagramaxisxyz.svg

<svg viewBox="0 0 16 16" xmlns="http://www.w3.org/2000/svg"><path d="m6 2v7 .2929688l-4.3535156 4.3535152.7070312.707032 4.3535156-4.353516h.2929688 7v-1h-7v-7z" fill="#4d4d4d"/><path d="m4 2v5h1v-5zm.6464844 5.6464844-3 2.9999996.7070312.707032 3-3.0000004zm2.3535156 3.3535156v1h5v-1z" fill="#1d99f3"/></svg>

<svg xmlns="http://www.w3.org/2000/svg" viewBox="0 0 16 16">
 <path 
     style="fill:#4d4d4d" 
     d="M 6 2 L 6 9 L 6 9.2929688 L 1.6464844 13.646484 L 2.3535156 14.353516 L 6.7070312 10 L 7 10 L 14 10 L 14 9 L 7 9 L 7 2 L 6 2 z "
     />
 <path 
     style="fill:#1d99f3" 
     d="M 4 2 L 4 7 L 5 7 L 5 2 L 4 2 z M 4.6464844 7.6464844 L 1.6464844 10.646484 L 2.3535156 11.353516 L 5.3535156 8.3535156 L 4.6464844 7.6464844 z M 7 11 L 7 12 L 12 12 L 12 11 L 7 11 z "
     />
 </svg>
